X: 129
T:Happy Groves. HA.128
M:C|
L:1/4
Q:100
S:Henry Atkinson's original MS,Hartburn,N'umberland,1694.
O:England
A:Hartburn,Northumberland
N:cf The Beggar,s Opera.
H:1/4
Z:vmp.Chris Partington.Jan.2004
K:C
"v"g2"u"a"u"g|g/f/e/d/ cd|(ed) (fe)|d/c/d/e/ d2|!
"v"g2"u"a"u"g|g/f/e/d/ cd|e/d/c/e/ dB|c2||!
(ed)(fe)|(ed)(fe)|dcBA|e3e|!
agfe|d/e/f B"crs"b/a/|"sic"gff>e|e2|]
